hero/outline/lock-closed.svg

<svg width="24" height="24" viewBox="0 0 24 24" fill="none" xmlns="http://www.w3.org/2000/svg">
<path d="M16.5 10.5V6.75C16.5 4.26472 14.4853 2.25 12 2.25C9.51472 2.25 7.5 4.26472 7.5 6.75V10.5M6.75 21.75H17.25C18.4926 21.75 19.5 20.7426 19.5 19.5V12.75C19.5 11.5074 18.4926 10.5 17.25 10.5H6.75C5.50736 10.5 4.5 11.5074 4.5 12.75V19.5C4.5 20.7426 5.50736 21.75 6.75 21.75Z" stroke="#0F172A" stroke-width="1.5" stroke-linecap="round" stroke-linejoin="round"/>
</svg>

<svg viewBox="0 0 24 24" xmlns="http://www.w3.org/2000/svg"><path fill="none" stroke="#000" stroke-linecap="round" stroke-linejoin="round" stroke-width="1.5" d="M16.5 10.5V6.75v0c0-2.49-2.02-4.5-4.5-4.5 -2.49 0-4.5 2.01-4.5 4.5v3.75m-.75 11.25h10.5v0c1.24 0 2.25-1.01 2.25-2.25v-6.75 0c0-1.25-1.01-2.25-2.25-2.25H6.75v0c-1.25 0-2.25 1-2.25 2.25v6.75 0c0 1.24 1 2.25 2.25 2.25Z"/></svg>
